X: 89
T: Zhai guozi
%%abc-version 2.0
%%abcx-abcm2ps-target-version 5.9.1 (29 Sep 2008)
%%abc-creator hum2abc beta
%%abcx-conversion-date 2013/10/02 07:52:29
%%abc-edited-by Helmut Schaffrath
%%humdrum-veritas 3591364052
%%humdrum-veritas-data 1139228927
%%continueall 1
%%barnumbers 0
L: 1/16
M: 2/4
K: F
F2 F D c2 c c [I:setbarnb 1]| 
f2 f d c2 c c | 
G2 F2 F2 D2 | 
c d A GF4 | 
G G G A2< c2 D | 
F2> D2C4 | 
G G A GF4 | 
G G G A c c c D | 
F2> D2C4 |]  



